media/icons/instagram.svg

<svg xmlns="http://www.w3.org/2000/svg" width="30" height="30"><path d="M15 2.703c4.006 0 4.48.015 6.062.087 1.463.066 2.257.31 2.785.516.7.272 1.2.598 1.725 1.122.525.525.85 1.025 1.122 1.725.206.528.45 1.323.517 2.785.073 1.582.09 2.056.09 6.06 0 4.007-.017 4.48-.09 6.063-.065 1.464-.31 2.258-.516 2.786-.27.7-.597 1.2-1.122 1.725-.524.526-1.024.852-1.725 1.123-.528.206-1.322.45-2.785.517-1.58.072-2.056.088-6.062.088-4.005 0-4.48-.016-6.06-.088-1.463-.066-2.258-.31-2.786-.517-.7-.27-1.2-.597-1.725-1.122-.525-.523-.85-1.023-1.123-1.724-.205-.528-.45-1.322-.516-2.785-.072-1.58-.087-2.054-.087-6.06 0-4.005.015-4.48.087-6.06.066-1.463.31-2.258.516-2.786.272-.7.598-1.2 1.122-1.725.525-.525 1.025-.85 1.725-1.123.528-.205 1.323-.45 2.785-.516 1.583-.072 2.057-.087 6.062-.087M15 0c-4.074 0-4.584.018-6.184.09C7.22.163 6.13.417 5.176.788c-.987.383-1.824.896-2.658 1.73-.833.834-1.347 1.67-1.73 2.657C.418 6.13.163 7.22.09 8.815.018 10.416 0 10.926 0 15c0 4.074.018 4.585.09 6.185.073 1.597.327 2.688.697 3.642.383.986.896 1.822 1.73 2.656.834.834 1.67 1.347 2.657 1.73.954.37 2.044.624 3.64.697 1.602.073 2.112.09 6.186.09s4.585-.017 6.185-.09c1.597-.073 2.688-.326 3.642-.697.986-.384 1.822-.896 2.656-1.73.834-.834 1.347-1.67 1.73-2.656.37-.954.624-2.045.697-3.642.073-1.6.09-2.11.09-6.185 0-4.074-.017-4.584-.09-6.184-.073-1.597-.326-2.687-.697-3.64-.384-.987-.896-1.824-1.73-2.658-.834-.833-1.67-1.347-2.656-1.73-.954-.37-2.045-.625-3.642-.697C19.585.02 19.075 0 15 0z"/><path d="M15 7.297c-4.254 0-7.703 3.45-7.703 7.703 0 4.254 3.45 7.703 7.703 7.703 4.254 0 7.703-3.45 7.703-7.703 0-4.254-3.45-7.703-7.703-7.703zM15 20c-2.76 0-5-2.238-5-5 0-2.76 2.24-5 5-5 2.762 0 5 2.24 5 5 0 2.762-2.238 5-5 5z"/><circle cx="23.007" cy="6.993" r="1.8"/></svg>

<?xml version="1.0" encoding="UTF-8" standalone="no"?>
<!-- Created with Inkscape (http://www.inkscape.org/) -->

<svg
   xmlns:dc="http://purl.org/dc/elements/1.1/"
   xmlns:cc="http://creativecommons.org/ns#"
   xmlns:rdf="http://www.w3.org/1999/02/22-rdf-syntax-ns#"
   xmlns:svg="http://www.w3.org/2000/svg"
   xmlns="http://www.w3.org/2000/svg"
   version="1.1"
   width="30"
   height="30"
   viewBox="0 0 30 30"
   id="Logo"
   xml:space="preserve"><metadata
   id="metadata15"><rdf:RDF><cc:Work
       rdf:about=""><dc:format>image/svg+xml</dc:format><dc:type
         rdf:resource="http://purl.org/dc/dcmitype/StillImage" /><dc:title></dc:title></cc:Work></rdf:RDF></metadata><defs
   id="defs13" />
<g
   id="g3">
	<path
   d="m 15,2.703 c 4.006,0 4.479,0.015 6.062,0.087 1.463,0.066 2.257,0.311 2.785,0.516 0.7,0.272 1.2,0.598 1.725,1.122 0.525,0.525 0.851,1.025 1.122,1.725 0.206,0.528 0.45,1.323 0.517,2.785 0.072,1.582 0.088,2.056 0.088,6.061 0,4.006 -0.016,4.479 -0.088,6.062 -0.066,1.463 -0.311,2.257 -0.517,2.785 -0.271,0.7 -0.597,1.2 -1.122,1.725 -0.524,0.525 -1.024,0.851 -1.725,1.122 -0.528,0.206 -1.322,0.45 -2.785,0.517 -1.581,0.072 -2.056,0.088 -6.062,0.088 -4.005,0 -4.479,-0.016 -6.061,-0.088 C 7.477,27.144 6.682,26.899 6.154,26.693 5.454,26.422 4.954,26.096 4.429,25.571 3.905,25.047 3.579,24.547 3.307,23.846 3.102,23.318 2.857,22.524 2.791,21.061 2.718,19.479 2.703,19.006 2.703,15 2.703,10.995 2.718,10.521 2.79,8.939 2.856,7.477 3.101,6.682 3.306,6.154 3.578,5.454 3.904,4.954 4.428,4.429 4.953,3.905 5.453,3.579 6.153,3.307 6.681,3.102 7.476,2.857 8.938,2.791 10.521,2.718 10.995,2.703 15,2.703 M 15,0 C 10.926,0 10.416,0.018 8.816,0.09 7.219,0.163 6.129,0.417 5.175,0.788 4.189,1.171 3.352,1.684 2.518,2.518 1.685,3.352 1.171,4.189 0.788,5.175 0.417,6.129 0.163,7.219 0.09,8.816 0.018,10.416 0,10.926 0,15 c 0,4.074 0.018,4.585 0.09,6.185 0.073,1.597 0.327,2.688 0.697,3.642 0.383,0.986 0.896,1.822 1.73,2.656 0.834,0.834 1.671,1.347 2.657,1.73 0.954,0.371 2.044,0.624 3.641,0.697 1.601,0.073 2.111,0.09 6.185,0.09 4.074,0 4.585,-0.017 6.185,-0.09 1.597,-0.073 2.688,-0.326 3.642,-0.697 0.986,-0.384 1.822,-0.896 2.656,-1.73 0.834,-0.834 1.347,-1.67 1.73,-2.656 0.371,-0.954 0.624,-2.045 0.697,-3.642 C 29.983,19.585 30,19.074 30,15 30,10.926 29.983,10.416 29.91,8.816 29.837,7.219 29.584,6.129 29.213,5.175 28.829,4.189 28.317,3.352 27.483,2.518 26.649,1.685 25.813,1.171 24.827,0.788 23.873,0.417 22.782,0.163 21.185,0.091 19.585,0.018 19.074,0 15,0 l 0,0 z"
   id="path5" />
	<path
   d="m 15,7.297 c -4.254,0 -7.703,3.449 -7.703,7.703 0,4.254 3.449,7.703 7.703,7.703 4.254,0 7.703,-3.449 7.703,-7.703 0,-4.254 -3.449,-7.703 -7.703,-7.703 z M 15,20 c -2.761,0 -5,-2.238 -5,-5 0,-2.761 2.239,-5 5,-5 2.762,0 5,2.239 5,5 0,2.762 -2.238,5 -5,5 z"
   id="path7" />
	<circle
   cx="23.007"
   cy="6.993"
   r="1.8"
   id="circle9" />
</g>
</svg>
